X: 1642
T: The Soldier's Joy
M:C|
L:1/8
B:O'Neill's 1642
K:D
FG \
| AFDF AFDF | A2 d2 d2 cB | AFDF AFDF | G2E2 E2 FG |
| AFDF AFDF | A2 d2 d2 de | fafd egec | d2 d2 d2 :|
|: de \
| fdfd fagf | edcd efge | fdfd fagf | edcB A2 de |
| fdfd fagf | ecAc efge | fafd egec | d2 d2 d2 :|


